src/assets/icons/filter.svg

<svg width="20" height="20" viewBox="0 0 20 20" fill="none" xmlns="http://www.w3.org/2000/svg">
<g clip-path="url(#clip0_1987_17774)">
<path d="M4.27391 3.48017H0.58823C0.263319 3.48017 0 3.21668 0 2.89194C0 2.56721 0.263319 2.30371 0.58823 2.30371H4.27391C4.59882 2.30371 4.86214 2.56721 4.86214 2.89194C4.86214 3.21668 4.59882 3.48017 4.27391 3.48017Z" fill="#0061DF"/>
<path d="M6.38012 5.58609C4.89439 5.58609 3.68573 4.37743 3.68573 2.89183C3.68573 1.40592 4.89439 0.197266 6.38012 0.197266C7.86585 0.197266 9.07451 1.40592 9.07451 2.89183C9.07451 4.37748 7.86585 5.58609 6.38012 5.58609ZM6.38012 1.37377C5.54311 1.37377 4.86219 2.05483 4.86219 2.89183C4.86219 3.72884 5.54311 4.40959 6.38012 4.40959C7.21713 4.40959 7.89805 3.72884 7.89805 2.89183C7.89805 2.05483 7.21713 1.37377 6.38012 1.37377Z" fill="#0061DF"/>
<path d="M19.4118 3.48017H10.6201C10.2952 3.48017 10.0319 3.21668 10.0319 2.89194C10.0319 2.56721 10.2952 2.30371 10.6201 2.30371H19.4117C19.7366 2.30371 20 2.56721 20 2.89194C20 3.21668 19.7367 3.48017 19.4118 3.48017Z" fill="#0061DF"/>
<path d="M14.2781 12.6942C12.7923 12.6942 11.5837 11.4855 11.5837 9.99992C11.5837 8.51432 12.7923 7.30566 14.2781 7.30566C15.7638 7.30566 16.9725 8.51432 16.9725 9.99992C16.9725 11.4855 15.7638 12.6942 14.2781 12.6942ZM14.2781 8.48217C13.4411 8.48217 12.7601 9.16291 12.7601 9.99992C12.7601 10.8369 13.4411 11.5177 14.2781 11.5177C15.1151 11.5177 15.796 10.8369 15.796 9.99992C15.796 9.16291 15.1151 8.48217 14.2781 8.48217Z" fill="#0061DF"/>
<path d="M10.0382 10.5881H0.58823C0.263319 10.5881 0 10.3246 0 9.99985C0 9.67512 0.263319 9.41162 0.58823 9.41162H10.0382C10.3631 9.41162 10.6264 9.67512 10.6264 9.99985C10.6264 10.3246 10.3631 10.5881 10.0382 10.5881Z" fill="#0061DF"/>
<path d="M19.4118 10.5881H16.3842C16.0593 10.5881 15.796 10.3246 15.796 9.99985C15.796 9.67512 16.0593 9.41162 16.3842 9.41162H19.4118C19.7367 9.41162 20 9.67512 20 9.99985C20 10.3246 19.7367 10.5881 19.4118 10.5881Z" fill="#0061DF"/>
<path d="M5.72204 19.8029C4.23631 19.8029 3.02765 18.5942 3.02765 17.1083C3.02765 15.6227 4.23631 14.4141 5.72204 14.4141C7.20777 14.4141 8.41643 15.6227 8.41643 17.1083C8.41643 18.5942 7.20777 19.8029 5.72204 19.8029ZM5.72204 15.5906C4.88503 15.5906 4.20411 16.2713 4.20411 17.1083C4.20411 17.9453 4.88503 18.6264 5.72204 18.6264C6.55905 18.6264 7.23997 17.9453 7.23997 17.1083C7.23997 16.2713 6.55905 15.5906 5.72204 15.5906Z" fill="#0061DF"/>
<path d="M19.4118 17.6965H9.96189C9.63698 17.6965 9.37366 17.433 9.37366 17.1082C9.37366 16.7835 9.63698 16.52 9.96189 16.52H19.4118C19.7367 16.52 20 16.7835 20 17.1082C20 17.433 19.7367 17.6965 19.4118 17.6965Z" fill="#0061DF"/>
<path d="M3.61581 17.6965H0.58823C0.263319 17.6965 0 17.433 0 17.1082C0 16.7835 0.263319 16.52 0.58823 16.52H3.61581C3.94072 16.52 4.20404 16.7835 4.20404 17.1082C4.20404 17.433 3.94072 17.6965 3.61581 17.6965Z" fill="#0061DF"/>
</g>
<defs>
<clipPath id="clip0_1987_17774">
<rect width="20" height="20" fill="white"/>
</clipPath>
</defs>
</svg>

<svg xmlns="http://www.w3.org/2000/svg" width="20" height="20" fill="none"><g fill="#0061DF" clip-path="url(#a)"><path d="M4.274 3.48H.588a.588.588 0 0 1 0-1.176h3.686a.588.588 0 0 1 0 1.176Z"/><path d="M6.38 5.586a2.697 2.697 0 0 1-2.694-2.694A2.697 2.697 0 0 1 6.38.197a2.697 2.697 0 0 1 2.695 2.695A2.697 2.697 0 0 1 6.38 5.586Zm0-4.212a1.52 1.52 0 0 0-1.518 1.518c0 .837.681 1.518 1.518 1.518a1.52 1.52 0 0 0 1.518-1.518A1.52 1.52 0 0 0 6.38 1.374ZM19.412 3.48H10.62a.588.588 0 0 1 0-1.176h8.792a.588.588 0 0 1 0 1.176ZM14.278 12.694A2.697 2.697 0 0 1 11.584 10a2.697 2.697 0 0 1 2.694-2.694A2.697 2.697 0 0 1 16.972 10a2.697 2.697 0 0 1-2.694 2.694Zm0-4.212A1.52 1.52 0 0 0 12.76 10a1.52 1.52 0 0 0 1.518 1.518A1.52 1.52 0 0 0 15.796 10a1.52 1.52 0 0 0-1.518-1.518ZM10.038 10.588H.588a.588.588 0 0 1 0-1.176h9.45a.588.588 0 0 1 0 1.176Z"/><path d="M19.412 10.588h-3.028a.588.588 0 0 1 0-1.176h3.028a.588.588 0 0 1 0 1.176ZM5.722 19.803a2.697 2.697 0 0 1-2.694-2.695 2.697 2.697 0 0 1 2.694-2.694 2.697 2.697 0 0 1 2.694 2.694 2.697 2.697 0 0 1-2.694 2.695Zm0-4.212a1.52 1.52 0 0 0-1.518 1.517c0 .837.681 1.518 1.518 1.518a1.52 1.52 0 0 0 1.518-1.518 1.52 1.52 0 0 0-1.518-1.517ZM19.412 17.697h-9.45a.588.588 0 0 1 0-1.177h9.45a.588.588 0 0 1 0 1.177Z"/><path d="M3.616 17.697H.588a.588.588 0 0 1 0-1.177h3.028a.588.588 0 0 1 0 1.177Z"/></g><defs><clipPath id="a"><path fill="#fff" d="M0 0h20v20H0z"/></clipPath></defs></svg>
